X:49
T:Mage on a Cree
M:6/8
K:Cmaj clef=treble
L:1/8
[||: "C"c>dc e'2 e' | "G"d>ed f3 | "C"d>ed f3 | \
"C"e'gc "F"f2e | "G"dcB "C"c3 :|
[||: "C"c'2b c'2g | "Bb"_b2b "F"a2 g | \
"F"abc' "C"c'2g | "F"age' "G"d'3 |
"F"agf "C"(e'f)g | "Dm"agf "C"(e'f)g | \
"F"age "Dm"f2e | "G"dcB "C"c3 :|

